X:1
T:Title
%%score { ( 1 3 4 ) | ( 2 5 6 ) }
L:1/8
M:2/4
K:F
V:1 treble nm="Grand Piano"
V:3 treble 
V:4 treble 
V:2 bass 
V:5 bass 
V:6 bass 
V:1
 z2 z[Q:1/4=94] C | FF ED | EC z E | GG FG | z2 z A | BB AG | z .c3 | cc =BB |[M:3/8] [Ec]3 | %9
[M:1/8] d |[M:2/4] [GB]>A GF | z .G3 | [CA]>G [A,F][EG] | z .[Ac]3 | [DB]>A GF | [B,D]F [CE]D | %16
 [A,C]2 [B,G]2 |[M:3/8] [A,F]3 |] %18
V:2
 z4 | F,,2 [A,C]2 | G,,2 E,2 | C,2 [E,G,C]2 | F,,2 A,2 | B,,2 [B,D]2 | F,,2 A,2 | %7
 G,,2[K:treble] FF |[M:3/8][K:bass] [C,G,]3 |[M:1/8] B |[M:2/4] z z/[K:treble] F/ ED | z2 z E | %12
 z z/ B,/ z C | z2[K:treble] z F | z z/ F/ ED | z D z B, | C,2 C,,2 |[M:3/8] F,,3 |] %18
V:3
 x4 | x4 | z2 C2 | x4 | A4 | x4 | .A2 z c | x4 |[M:3/8] x3 |[M:1/8] x |[M:2/4] x4 | .[CE]2 z c | %12
 x4 | .[CFA]2 z d | x4 | x4 | x4 |[M:3/8] x3 |] %18
V:4
 x4 | x4 | x4 | x4 | z2 C2 | x4 | z2 C2 | x4 |[M:3/8] x3 |[M:1/8] x |[M:2/4] x4 | z2 C2 | x4 | %13
 z2 C2 | x4 | x4 | x4 |[M:3/8] x3 |] %18
V:5
 x4 | x4 | x4 | x4 | x4 | x4 | x4 | z2[K:treble] G,2 |[M:3/8][K:bass] x3 |[M:1/8] x | %10
[M:2/4] C,2[K:treble] [G,C]2 | z .E3 | F,,2 F,2 | z[K:treble] .F3 | B,,2 [F,C]2 | B,,2 F,2 | x4 | %17
[M:3/8] x3 |] %18
V:6
 x4 | x4 | x4 | x4 | x4 | x4 | x4 | x2[K:treble] x2 |[M:3/8][K:bass] x3 |[M:1/8] x | %10
[M:2/4] x3/2[K:treble] x5/2 | C,2 G,2 | x4 | F,,2[K:treble] A,2 | x4 | x4 | x4 |[M:3/8] x3 |] %18

